dist/img/icons/arrow-left.svg

<svg width="26" height="39" viewBox="0 0 26 39" fill="none" xmlns="http://www.w3.org/2000/svg">
<path d="M25.9913 3.24993C25.9913 3.56219 25.8125 3.91383 25.545 4.14844L8.00063 19.4998L25.545 34.8511C25.8131 35.0857 25.9913 35.4368 25.9913 35.7496C25.9913 36.0624 25.8125 36.4135 25.545 36.6481L23.3131 38.601C23.045 38.8356 22.6438 38.9915 22.2863 38.9915C21.9288 38.9915 21.5275 38.8351 21.2594 38.601L0.455627 20.3977C0.187502 20.1631 0.00937653 19.812 0.00937653 19.4992C0.00937653 19.1864 0.188127 18.8353 0.455627 18.6007L21.2594 0.397427C21.5275 0.162818 21.9288 0.00695801 22.2863 0.00695801C22.6438 0.00695801 23.045 0.163365 23.3131 0.397427L25.545 2.35032C25.8131 2.58493 25.9913 2.89719 25.9913 3.24883V3.24993Z" fill="#666666"/>
</svg>

<svg width="26" height="39" fill="none" xmlns="http://www.w3.org/2000/svg"><path d="M25.991 3.25c0 .312-.178.664-.446.898L8.001 19.5l17.544 15.35c.268.235.446.586.446.899 0 .312-.178.663-.446.898L23.313 38.6a1.65 1.65 0 01-1.027.39c-.357 0-.759-.156-1.027-.39L.456 20.398c-.268-.235-.447-.586-.447-.899 0-.313.18-.664.447-.898L21.259.397a1.65 1.65 0 011.027-.39c.358 0 .759.156 1.027.39l2.232 1.953c.268.235.446.547.446.899z" fill="#666"/></svg>
